cloud-sync.svg

<svg fill="currentColor" viewBox="0 0 24 24"><path d="M13 17.5c0 .89.18 1.73.5 2.5h-7c-1.5 0-2.81-.5-3.89-1.57C1.54 17.38 1 16.09 1 14.58q0-1.95 1.17-3.48C3.34 9.57 4 9.43 5.25 9.15c.42-1.53 1.25-2.77 2.5-3.72S10.42 4 12 4c1.95 0 3.6.68 4.96 2.04S19 9.05 19 11h.1c-3.4.23-6.1 3.05-6.1 6.5m6-4V12l-2.25 2.25L19 16.5V15a2.5 2.5 0 0 1 2.5 2.5c0 .4-.09.78-.26 1.12l1.09 1.09c.42-.63.67-1.39.67-2.21 0-2.21-1.79-4-4-4m0 6.5a2.5 2.5 0 0 1-2.5-2.5c0-.4.09-.78.26-1.12l-1.09-1.09c-.42.63-.67 1.39-.67 2.21 0 2.21 1.79 4 4 4V23l2.25-2.25L19 18.5z"/></svg>

<svg  viewBox="0 0 24 24" fill="currentColor"><path  d="M13 17.5C13 18.39 13.18 19.23 13.5 20H6.5C5 20 3.69 19.5 2.61 18.43C1.54 17.38 1 16.09 1 14.58C1 13.28 1.39 12.12 2.17 11.1S4 9.43 5.25 9.15C5.67 7.62 6.5 6.38 7.75 5.43S10.42 4 12 4C13.95 4 15.6 4.68 16.96 6.04C18.32 7.4 19 9.05 19 11C19.04 11 19.07 11 19.1 11C15.7 11.23 13 14.05 13 17.5M19 13.5V12L16.75 14.25L19 16.5V15C20.38 15 21.5 16.12 21.5 17.5C21.5 17.9 21.41 18.28 21.24 18.62L22.33 19.71C22.75 19.08 23 18.32 23 17.5C23 15.29 21.21 13.5 19 13.5M19 20C17.62 20 16.5 18.88 16.5 17.5C16.5 17.1 16.59 16.72 16.76 16.38L15.67 15.29C15.25 15.92 15 16.68 15 17.5C15 19.71 16.79 21.5 19 21.5V23L21.25 20.75L19 18.5V20Z"/></svg>
